public/avatar/shoe/160.svg

<svg xmlns:xlink="http://www.w3.org/1999/xlink" height="38.3" width="36.05" xmlns="http://www.w3.org/2000/svg"><use height="16.3" transform="translate(7.05 11.35)" width="24.85" xlink:href="#a"/><defs><g id="a" fill-rule="evenodd"><path d="M6.4-.35q.55 1.2 1.2 4.6l.5 4.1-3.55 2.15Q1.4 12.4-2.1 12.7q-6.5.5-10.7-1.75-5.9-3.25-3-11l2.9.75 4.55.3Q-5.7-3.75-2.2-3.5q2.85.15 5.5 2.6l1.5-.4q1.15-.1 1.6.95" transform="translate(16.75 3.5)"/><path d="M-2.15 11.65q-9.25.7-12.45-3.55-1.05-1.6-1.05-3.5 0-1.35.6-3.35 4.75 1.25 6.95.85l.45-.15.25-.45q2.25-4.1 5.1-3.9 1.65.05 4 1.8 1.2.75 1.6.75l.85-.2 1.3.05q1.25 3.25 1.6 7.65l-1.5.95q-4.15 2.75-7.7 3.05" fill="#ffc032" transform="translate(16.75 3.5)"/><path d="M-9.8 2.2q.7 2.05-.15 3.65-1 1.9-4.2 2.4h-.25l-.2-.15-.45-.95.7-.05q2.55-.5 3.25-1.85.45-.75.3-1.85l-.25-.95V2.1l1.25.1m10.85 1q3.35 2.9 1.3 7.25l-1.75.7.45-.9Q3.1 6.6.2 4.15q-2.05-1.75-4.3-1.9 1.9 1 2.8 3.35 1.45 3.25-1.05 6.05l-1.8.05.55-.6q2.45-2.1 1.2-5-1.2-2.65-3.2-3.15.75 1.3.95 3.2.25 3.45-3 5.25l-2.15-.45.75-.25Q-5.7 9.45-5.9 6.2-6.05 4.25-7.35 3l-1.2-.75.2-.15h.25l.45-.15.25-.35h.05q5.2-1.1 8.4 1.6" fill="#c27400" transform="translate(16.75 3.5)"/><path d="M-4.4-1.85q1.75-.9 3.25-.3Q.4-1.6.4.75q0 2.7-3.2 4.15-4.75 2.2-12.25-3.65 3.75 1.4 7.6.7.8-2.75 3.05-3.8" fill="#ffff9a" transform="translate(16.75 3.5)"/><path d="M-9.8 2.2q.4 1.2.25 2.2l-1.25-.55-.25-1.4V2.2h1.25m7 2.7-.25.05q-.9-1.45-2.55-2 .65.95.8 2.4h-1.25Q-6.6 3.2-8.4 2.25l.05-.15h.25l.2-.1.45-.05.1-.35q4.2-1 7.3.85l-.65 1q-1.9-1.2-3.4-1.2Q-2.8 3-1.9 4.4l-.9.5" fill="#ffc032" transform="translate(16.75 3.5)"/><path d="M3.2 7.75q1-2 2.2-3.1l1-.7.65 3.7-6.45 3.5q-8.75 1.45-13.15-1.3-1.35-.9-2.1-2l-.5-1q3 2.75 10.1 3.05 7.1.3 8.25-2.15" fill="#c27400" transform="translate(16.75 3.5)"/><path d="M-15.05 7.15h.35l1.5.95-.95.15h-.15l-.75-1.1m12.45 2.7 1.45-.15-1.05 1.8-1.85.1.45-.5 1-1.25m-6.45.85q.95-.35 1.7-1.05l1.55.2q-.85 1.05-1.85 1.55l-2.15-.45.75-.25m10.6-1.6q.9-.4 1.4-1-.05 1.25-.6 2.3l-.25.2-1.5.55.45-.9.5-1.15" fill="#442d00" transform="translate(16.75 3.5)"/><path d="M5.3-.15q.5.3 1.1 3.85l.65 3.95q-2-7-2.75-7.7l1-.1" fill="#ffff9a" transform="translate(16.75 3.5)"/><path d="M5.15-.25Q5.7 2.5 5.1 1.6 4.7 1 3.8.85L2.05.4Q.85-.15.45.2l-.1.55Q-.8-2-1.65-2.3l1.1.3L1.9-.35l3.25.1" fill="#ffff9a" transform="translate(16.75 3.5)"/></g></defs></svg>

<?xml version="1.0" encoding="UTF-8" standalone="no"?>
<svg xmlns:xlink="http://www.w3.org/1999/xlink" height="38.3px" width="36.05px" xmlns="http://www.w3.org/2000/svg">
  <g transform="matrix(1.0, 0.0, 0.0, 1.0, 23.8, 14.85)">
    <use height="16.3" transform="matrix(1.0, 0.0, 0.0, 1.0, -16.75, -3.5)" width="24.85" xlink:href="#shape0"/>
  </g>
  <defs>
    <g id="shape0" transform="matrix(1.0, 0.0, 0.0, 1.0, 16.75, 3.5)">
      <path d="M6.4 -0.35 Q6.95 0.85 7.6 4.25 L8.1 8.35 4.55 10.5 Q1.4 12.4 -2.1 12.7 -8.6 13.2 -12.8 10.95 -18.7 7.7 -15.8 -0.05 L-12.9 0.7 -8.35 1.0 Q-5.7 -3.75 -2.2 -3.5 0.65 -3.35 3.3 -0.9 L4.8 -1.3 Q5.95 -1.4 6.4 -0.35" fill="#000000" fill-rule="evenodd" stroke="none"/>
      <path d="M-2.15 11.65 Q-11.4 12.35 -14.6 8.1 -15.65 6.5 -15.65 4.6 -15.65 3.25 -15.05 1.25 -10.3 2.5 -8.1 2.1 L-7.65 1.95 -7.4 1.5 Q-5.15 -2.6 -2.3 -2.4 -0.65 -2.35 1.7 -0.6 2.9 0.15 3.3 0.15 L4.15 -0.05 5.45 0.0 Q6.7 3.25 7.05 7.65 L5.55 8.6 Q1.4 11.35 -2.15 11.65" fill="#ffc032" fill-rule="evenodd" stroke="none"/>
      <path d="M-9.8 2.2 Q-9.1 4.25 -9.95 5.85 -10.95 7.75 -14.15 8.25 L-14.4 8.25 -14.6 8.1 -15.05 7.15 -14.35 7.1 Q-11.8 6.6 -11.1 5.25 -10.65 4.5 -10.8 3.4 L-11.05 2.45 -11.05 2.1 -9.8 2.2 M1.05 3.2 Q4.4 6.1 2.35 10.45 L0.6 11.15 1.05 10.25 Q3.1 6.6 0.2 4.15 -1.85 2.4 -4.1 2.25 -2.2 3.25 -1.3 5.6 0.15 8.85 -2.35 11.65 L-4.15 11.7 -3.6 11.1 Q-1.15 9.0 -2.4 6.1 -3.6 3.45 -5.6 2.95 -4.85 4.25 -4.65 6.15 -4.4 9.6 -7.65 11.4 L-9.8 10.95 -9.05 10.7 Q-5.7 9.45 -5.9 6.2 -6.05 4.25 -7.35 3.0 L-8.55 2.25 -8.35 2.1 -8.1 2.1 -7.65 1.95 -7.4 1.6 -7.35 1.6 Q-2.15 0.5 1.05 3.2" fill="#c27400" fill-rule="evenodd" stroke="none"/>
      <path d="M-4.4 -1.85 Q-2.65 -2.75 -1.15 -2.15 0.4 -1.6 0.4 0.75 0.4 3.45 -2.8 4.9 -7.55 7.1 -15.05 1.25 -11.3 2.65 -7.45 1.95 -6.65 -0.8 -4.4 -1.85" fill="#ffff9a" fill-rule="evenodd" stroke="none"/>
      <path d="M-9.8 2.2 Q-9.4 3.4 -9.55 4.4 L-10.8 3.85 -11.05 2.45 -11.05 2.2 -9.8 2.2 M-2.8 4.9 L-3.05 4.95 Q-3.95 3.5 -5.6 2.95 -4.95 3.9 -4.8 5.35 L-6.05 5.35 Q-6.6 3.2 -8.4 2.25 L-8.35 2.1 -8.1 2.1 -7.9 2.0 -7.45 1.95 -7.35 1.6 Q-3.15 0.6 -0.05 2.45 L-0.7 3.45 Q-2.6 2.25 -4.1 2.25 -2.8 3.0 -1.9 4.4 L-2.8 4.9" fill="#ffc032" fill-rule="evenodd" stroke="none"/>
      <path d="M3.2 7.75 Q4.2 5.75 5.4 4.65 L6.4 3.95 7.05 7.65 0.6 11.15 Q-8.15 12.6 -12.55 9.85 -13.9 8.95 -14.65 7.85 L-15.15 6.85 Q-12.15 9.6 -5.05 9.9 2.05 10.2 3.2 7.75" fill="#c27400" fill-rule="evenodd" stroke="none"/>
      <path d="M-15.05 7.15 L-14.7 7.15 -13.2 8.1 -14.15 8.25 -14.3 8.25 -15.05 7.15 M-2.6 9.85 L-1.15 9.7 -2.2 11.5 -4.05 11.6 -3.6 11.1 -2.6 9.85 M-9.05 10.7 Q-8.1 10.35 -7.35 9.65 L-5.8 9.85 Q-6.65 10.9 -7.65 11.4 L-9.8 10.95 -9.05 10.7 M1.55 9.1 Q2.45 8.7 2.95 8.1 2.9 9.35 2.35 10.4 L2.1 10.6 0.6 11.15 1.05 10.25 1.55 9.1" fill="#442d00" fill-rule="evenodd" stroke="none"/>
      <path d="M5.3 -0.15 Q5.8 0.15 6.4 3.7 L7.05 7.65 Q5.05 0.65 4.3 -0.05 L5.3 -0.15" fill="#ffff9a" fill-rule="evenodd" stroke="none"/>
      <path d="M5.15 -0.25 Q5.7 2.5 5.1 1.6 4.7 1.0 3.8 0.85 L2.05 0.4 Q0.85 -0.15 0.45 0.2 L0.35 0.75 Q-0.8 -2.0 -1.65 -2.3 L-0.55 -2.0 1.9 -0.35 5.15 -0.25" fill="#ffff9a" fill-rule="evenodd" stroke="none"/>
    </g>
  </defs>
</svg>
